!!!COM: Vivaldi, Antonio Lucio
!!!CDT: 1678/03/04-1741/08/28
!!!OPR: 12 sonatas for two violins and basso continuo
!!!OTL: Sonata in B minor, op. @{OPS}, no. @{ONM} (@{SCT})
!!!OPS: 1
!!!ONM: 11
!!!OMV: 4. Gavotta
!!!SCT: RV 79
!!!SCA: Antonio Vivaldi: Thematisch-systematisches Verzeichnis seiner Werke (Ryom-Verzeichnis)
!!!OMD: Andante
!!!key: b
**kern	**dynam	**fb	**kern	**dynam	**kern	**dynam
*part3	*	*	*part2	*	*part1	*
*staff3	*	*	*staff2	*	*staff1	*
*ICstr&ICklav	*	*	*ICstr	*	*ICstr	*
*Icello&Icemba	*	*	*Ivioln	*	*Ivioln	*
*	*	*	*I#2	*	*I#1	*
*I"Violoncello\nContinuo	*	*	*I"Violin 2	*	*I"Violin 1	*
*I'bc	*	*	*I'v2	*	*I'v1	*
*>[A,A]	*>[A,A]	*>[A,A]	*>[A,A]	*>[A,A]	*>[A,A]	*>[A,A]
*>norep[A]	*>norep[A]	*>norep[A]	*>norep[A]	*>norep[A]	*>norep[A]	*>norep[A]
*>A	*>A	*>A	*>A	*>A	*>A	*>A
*clefF4	*	*	*clefG2	*	*clefG2	*
*k[f#c#]	*	*	*k[f#c#]	*	*k[f#c#]	*
*b:	*	*	*b:	*	*b:	*
*M4/4	*	*	*M4/4	*	*M4/4	*
*met(c)	*	*	*met(c)	*	*met(c)	*
*MM132	*	*	*MM132	*	*MM132	*
=1	=1	=1	=1	=1	=1	=1
8r	.	.	4dd\	.	8b\L	.
8B\	.	.	.	.	8d\	.
4BB/	.	.	8r	.	8B\	.
.	.	.	8dd\	.	8bb\J	.
8r	.	.	4cc#y\	.	8aa#y\L	.
8f#y\	.	#	.	.	8ff#y\	.
4D\	.	6	8r	.	8f#y\	.
.	.	.	8ff#y\	.	8bb\J	.
=2	=2	=2	=2	=2	=2	=2
8r	.	.	4ee\	.	8gg\L	.
8e\	.	.	.	.	8ee\	.
4C#y/	.	6	8r	.	8An/	.
.	.	.	8ee\	.	8aa\J	.
8r	.	.	4a/	.	8ff#y\L	.
8d\	.	.	.	.	8dd\	.
4BB/	.	6	8r	.	8d\	.
.	.	.	8dd\	.	8gg\J	.
=3	=3	=3	=3	=3	=3	=3
8r	.	.	4cc#y\	.	8ee\L	.
8c#y\	.	.	.	.	8a#X\	.
4AA#X/	.	6 5	8r	.	8f#y\	.
.	.	.	8cc#y\	.	8ee\J	.
8BB\L	.	.	4f#y/	.	8dd\L	.
8B\J	.	.	.	.	8b\	.
4D\	.	6	8r	.	8B/	.
.	.	.	8ff#y\	.	8bb\J	.
=4	=4	=4	=4	=4	=4	=4
2E\	.	.	2b\	.	(16gg\LL	.
.	.	.	.	.	16ff#y\)	.
.	.	.	.	.	(16ee\	.
.	.	.	.	.	16dd\JJ)	.
.	.	.	.	.	(16gg\LL	.
.	.	.	.	.	16ff#y\)	.
.	.	.	.	.	(16ee\	.
.	.	.	.	.	16dd\JJ)	.
2F#y\	.	#	2a#X/	.	2cc#y\	.
!!LO:LB:g=original
=5	=5	=5	=5	=5	=5	=5
8r	.	.	4dd\	.	16ff#y\LL	.
.	.	.	.	.	16dd\	.
8B\	.	.	.	.	16b\	.
.	.	.	.	.	16ff#y\JJ	.
4BB/	.	.	8r	.	16ff#y\LL	.
.	.	.	.	.	16dd\	.
.	.	.	8dd\	.	16b\	.
.	.	.	.	.	16bb\JJ	.
8r	.	.	4cc#y\	.	16aa#X\LL	.
.	.	.	.	.	16ff#y\	.
8f#y\	.	#	.	.	16cc#y\	.
.	.	.	.	.	16aa#X\JJ	.
4D\	.	6	8r	.	16bb\LL	.
.	.	.	.	.	16ff#y\	.
.	.	.	8ff#y\	.	16dd\	.
.	.	.	.	.	16bb\JJ	.
=6	=6	=6	=6	=6	=6	=6
8r	.	.	4ee\	.	16gg\LL	.
.	.	.	.	.	16ee\	.
8e\	.	.	.	.	16cc#y\	.
.	.	.	.	.	16ee\JJ	.
4C#y/	.	6	8r	.	16aa\LL	.
.	.	.	.	.	16ee\	.
.	.	.	8ee\	.	16cc#y\	.
.	.	.	.	.	16aa\JJ	.
8r	.	.	4a/	.	16ff#y\LL	.
.	.	.	.	.	16dd\	.
8d\	.	.	.	.	16a\	.
.	.	.	.	.	16ff#y\JJ	.
4BB/	.	6	8r	.	16gg\LL	.
.	.	.	.	.	16dd\	.
.	.	.	8dd\	.	16b\	.
.	.	.	.	.	16gg\JJ	.
=7	=7	=7	=7	=7	=7	=7
8r	.	.	4cc#y\	.	16ee\LL	.
.	.	.	.	.	16cc#y\	.
8c#y\	.	.	.	.	16a#X\	.
.	.	.	.	.	16ee\JJ	.
4AA#X/	.	6 5	8r	.	16ee\LL	.
.	.	.	.	.	16cc#y\	.
.	.	.	8cc#y\	.	16a#X\	.
.	.	.	.	.	16ee\JJ	.
8BB\L	.	.	4f#y/	.	16dd\LL	.
.	.	.	.	.	16cc#y\	.
8B\J	.	.	.	.	16b\	.
.	.	.	.	.	16ff#y\JJ	.
4D\	.	6	8r	.	16bb\LL	.
.	.	.	.	.	16ff#y\	.
.	.	.	8ff#y\	.	16dd\	.
.	.	.	.	.	16ff#y\JJ	.
!!LO:LB:g=original
=8	=8	=8	=8	=8	=8	=8
2E\	.	.	2b\	.	(16gg\LL	.
.	.	.	.	.	16ff#y\)	.
.	.	.	.	.	(16ee\	.
.	.	.	.	.	16dd\JJ)	.
.	.	.	.	.	(16gg\LL	.
.	.	.	.	.	16ff#y\)	.
.	.	.	.	.	(16ee\	.
.	.	.	.	.	16dd\JJ)	.
2F#y\	.	#	2a#X/	.	2cc#y\	.
=9	=9	=9	=9	=9	=9	=9
8r	.	.	4dd#X\	.	8ff#y/L	.
8B\	.	#	.	.	8d#X/	.
4BB/	.	.	8r	.	8B/	.
.	.	.	8dd#y\	.	8ff#y/J	.
8r	.	.	4b\	.	8gg\L	.
8e\	.	.	.	.	8b\	.
4E\	.	.	8r	.	8e\	.
.	.	.	8b\	.	8gg\J	.
=10	=10	=10	=10	=10	=10	=10
8r	.	.	4cc#y\	.	8ee/L	.
8An\	.	.	.	.	8c#y/	.
4AA/	.	.	8r	.	8A/	.
.	.	.	8cc#y\	.	8ee/J	.
8r	.	.	4a/	.	8ff#y\L	.
8d\	.	.	.	.	8a\	.
4D\	.	.	8r	.	8d\	.
.	.	.	8a/	.	8ff#y\J	.
=11	=11	=11	=11	=11	=11	=11
8r	.	.	4b\	.	(16gg\LL	.
.	.	.	.	.	16ff#y\)	.
8G\	.	6	.	.	(16ee\	.
.	.	.	.	.	16dd\JJ)	.
4GG/	.	.	8r	.	(16ee\LL	.
.	.	.	.	.	16dd\)	.
.	.	.	8b\	.	(16cc#y\	.
.	.	.	.	.	16b\JJ)	.
8r	.	.	4e/	.	(16cc#y/LL	.
.	.	.	.	.	16b/)	.
8A\	.	.	.	.	(16a/	.
.	.	.	.	.	16g/JJ)	.
4AA/	.	.	8r	.	(16a/LL	.
.	.	.	.	.	16g/)	.
.	.	.	8cc#y\	.	(16f#y/	.
.	.	.	.	.	16e/JJ)	.
!!LO:LB:g=original
=12	=12	=12	=12	=12	=12	=12
8r	.	.	8dd/L	.	8f#y/L	.
8D\	.	.	8f#y/	.	8dd/	.
8A\L	.	.	8e/	.	8e/	.
8AA\J	.	.	8a/J	.	8cc#y/J	.
8D\L	.	.	4f#y/	.	4d/	.
8d\J	.	.	.	.	.	.
4D\	.	.	4r	.	8r	.
.	.	.	.	.	8ff#y\	.
=13	=13	=13	=13	=13	=13	=13
8r	.	.	4dd#X\	.	8ff#y/L	.
8B\	.	#	.	.	8d#y/	.
4BB/	.	.	8r	.	8B/	.
.	.	.	8dd#y\	.	8ff#y/J	.
8r	.	.	4ee\	.	8gg#X\L	.
8e\	.	#	.	.	8b\	.
4E\	.	6 5	8r	.	8e\	.
.	.	.	8ee\	.	8gg#X\J	.
=14	=14	=14	=14	=14	=14	=14
4F#y\	.	#	4cc#y\	.	8aa#X\L	.
.	.	.	.	.	8ff#y\	.
4E\	.	6 4#|	8r	.	8f#y\	.
.	.	.	8cc#y\	.	8aa#X\J	.
8D\L	.	6	4f#y/	.	8bb\L	.
8B\J	.	.	.	.	8ddn\	.
4BB/	.	.	8r	.	8B/	.
.	.	.	8dd\	.	8ff#y\J	.
=15	=15	=15	=15	=15	=15	=15
8r	.	.	4b\	.	(16gg\LL	.
.	.	.	.	.	16ff#y\)	.
8e\	.	.	.	.	(16ee\	.
.	.	.	.	.	16ff#y\JJ)	.
4E\	.	.	8r	.	(16gg\LL	.
.	.	.	.	.	16ff#y\)	.
.	.	.	8b\	.	(16ee\	.
.	.	.	.	.	16dd\JJ)	.
8F#y\L	.	#	4a#X/	.	8cc#y\L	.
8E\	.	.	.	.	8ff#y\	.
8D\	.	6	8r	.	8bb\	.
8E\J	.	.	8b\	.	8ee\J	.
=16	=16	=16	=16	=16	=16	=16
4F#y\	.	6 4	4b\	.	4dd\	.
4FF#y/	.	5 #	4a#X/	.	4cc#y\t	.
8BB\L	.	.	4b\	.	4b\	.
8B\J	.	.	.	.	.	.
4BB/	.	.	4r	.	8r	.
.	.	.	.	.	8ff#y\	p
!!LO:PB:g=original
=17	=17	=17	=17	=17	=17	=17
8r	.	.	4dd\	p	8ff#y/L	.
8B\	p	.	.	.	8d/	.
4BB/	.	#	8r	.	8B/	.
.	.	.	8dd#X\	.	8ff#y/J	.
8r	.	.	4ee\	.	8gg#X\L	.
8e\	.	#	.	.	8b\	.
4E\	.	6 5	8r	.	8e\	.
.	.	.	8ee\	.	8gg#X\J	.
=18	=18	=18	=18	=18	=18	=18
4F#y\	.	#	4cc#y\	.	8aa#X\L	.
.	.	.	.	.	8ff#y\	.
4E\	.	6 4#|	8r	.	8f#y\	.
.	.	.	8cc#y\	.	8aa#X\J	.
8D\L	.	6	4f#y/	.	8bb\L	.
8B\J	.	.	.	.	8dd\	.
4BB/	.	.	8r	.	8B/	.
.	.	.	8dd\	.	8ff#y\J	.
=19	=19	=19	=19	=19	=19	=19
8r	.	.	4b\	.	(16ggn\LL	.
.	.	.	.	.	16ff#y\)	.
8e\	.	.	.	.	(16ee\	.
.	.	.	.	.	16ff#y\JJ)	.
4E\	.	.	8r	.	(16gg\LL	.
.	.	.	.	.	16ff#y\)	.
.	.	.	8b\	.	(16ee\	.
.	.	.	.	.	16dd\JJ)	.
8F#y\L	.	#	4a#X/	.	8cc#y\L	.
8E\	.	.	.	.	8ff#y\	.
8D\	.	6	8r	.	8bb\	.
8E\J	.	.	8b\	.	8ee\J	.
=20	=20	=20	=20	=20	=20	=20
4F#y\	.	6 4	4b\	.	4dd\	.
4FF#y/	.	5 #	4a#X/	.	4cc#y\t	.
2BB/	.	.	2b\	.	2b\	.
!!LO:LB:g=original
=21	=21	=21	=21	=21	=21	=21
8r	.	.	4dd#X\	.	16ff#y\LL	f
.	.	.	.	.	16dd#X\	.
8B\	.	#	.	.	16b\	.
.	.	.	.	.	16ff#y\JJ	.
4BB/	.	.	8r	.	16ff#y\LL	.
.	.	.	.	.	16dd#X\	.
.	.	.	8dd#y\	.	16b\	.
.	.	.	.	.	16ff#y\JJ	.
8r	.	.	4b\	.	16gg\LL	.
.	.	.	.	.	16ee\	.
8e\	.	.	.	.	16b\	.
.	.	.	.	.	16gg\JJ	.
4E\	.	.	8r	.	16gg\LL	.
.	.	.	.	.	16ee\	.
.	.	.	8b\	.	16b\	.
.	.	.	.	.	16gg\JJ	.
=22	=22	=22	=22	=22	=22	=22
8r	.	.	4cc#y\	.	16ee\LL	.
.	.	.	.	.	16cc#y\	.
8A\	.	.	.	.	16a\	.
.	.	.	.	.	16ee\JJ	.
4AA/	.	.	8r	.	16ee\LL	.
.	.	.	.	.	16cc#y\	.
.	.	.	8cc#y\	.	16a\	.
.	.	.	.	.	16ee\JJ	.
8r	.	.	4a/	.	16ff#y\LL	.
.	.	.	.	.	16dd\	.
8d\	.	.	.	.	16a\	.
.	.	.	.	.	16ff#y\JJ	.
4D\	.	.	8r	.	16ff#y\LL	.
.	.	.	.	.	16dd\	.
.	.	.	8a/	.	16a\	.
.	.	.	.	.	16ff#y\JJ	.
=23	=23	=23	=23	=23	=23	=23
8r	.	.	4b\	.	(16gg\LL	.
.	.	.	.	.	16ff#y\)	.
8G\	.	6	.	.	(16ee\	.
.	.	.	.	.	16dd\JJ)	.
4GG/	.	.	8r	.	(16ee\LL	.
.	.	.	.	.	16dd\)	.
.	.	.	8b\	.	(16cc#y\	.
.	.	.	.	.	16b\JJ)	.
8r	.	.	4e/	.	(16cc#y/LL	.
.	.	.	.	.	16b/)	.
8A\	.	.	.	.	(16a/	.
.	.	.	.	.	16g/JJ)	.
4AA/	.	.	8r	.	(16a/LL	.
.	.	.	.	.	16g/)	.
.	.	.	8cc#y\	.	(16f#y/	.
.	.	.	.	.	16e/JJ)	.
=24	=24	=24	=24	=24	=24	=24
8r	.	.	8dd/L	.	16f#y/LL	.
.	.	.	.	.	16dd/	.
8D\	.	.	8f#y/	.	16cc#y/	.
.	.	.	.	.	16dd/JJ	.
8A\L	.	.	8e/	.	16e/LL	.
.	.	.	.	.	16cc#y/	.
8AA\J	.	.	8a/J	.	16b/	.
.	.	.	.	.	16cc#y/JJ	.
8D\L	.	.	4f#y/	.	4d/	.
8d\J	.	.	.	.	.	.
4D\	.	.	4r	.	8r	.
.	.	.	.	.	8ff#y\	.
!!LO:LB:g=original
=25	=25	=25	=25	=25	=25	=25
8r	.	.	4dd#X\	.	16ff#y\LL	.
.	.	.	.	.	16dd#y\	.
8B\	.	#	.	.	16b\	.
.	.	.	.	.	16ff#y\JJ	.
4BB/	.	.	8r	.	16ff#y\LL	.
.	.	.	.	.	16dd#X\	.
.	.	.	8dd#y\	.	16b\	.
.	.	.	.	.	16ff#y\JJ	.
8r	.	.	4ee\	.	16gg#X\LL	.
.	.	.	.	.	16ee\	.
8e\	.	#	.	.	16b\	.
.	.	.	.	.	16gg#X\JJ	.
4E\	.	6 5	8r	.	16gg#y\LL	.
.	.	.	.	.	16ee\	.
.	.	.	8ee\	.	16b\	.
.	.	.	.	.	16gg#X\JJ	.
=26	=26	=26	=26	=26	=26	=26
4F#y\	.	#	4cc#y\	.	16aa#X\LL	.
.	.	.	.	.	16ff#y\	.
.	.	.	.	.	16cc#y\	.
.	.	.	.	.	16aa#X\JJ	.
4E\	.	6 4#|	8r	.	16aa#y\LL	.
.	.	.	.	.	16ff#y\	.
.	.	.	8cc#y\	.	16cc#y\	.
.	.	.	.	.	16aa#X\JJ	.
8D\L	.	6	4f#y/	.	16bb\LL	.
.	.	.	.	.	16ff#y\	.
8B\J	.	.	.	.	16ddn\	.
.	.	.	.	.	16ff#y\JJ	.
4BB/	.	.	8r	.	16ff#y\LL	.
.	.	.	.	.	16dd\	.
.	.	.	8dd\	.	16b\	.
.	.	.	.	.	16ff#y\JJ	.
=27	=27	=27	=27	=27	=27	=27
8r	.	.	4b\	.	(16ggn\LL	.
.	.	.	.	.	16ff#y\)	.
8e\	.	.	.	.	(16ee\	.
.	.	.	.	.	16ff#y\JJ)	.
4E\	.	.	8r	.	(16gg\LL	.
.	.	.	.	.	16ff#y\)	.
.	.	.	8b\	.	(16ee\	.
.	.	.	.	.	16dd\JJ)	.
8F#y\L	.	#	4a#X/	.	8cc#y\L	.
8E\	.	.	.	.	8ff#y\J	.
8D\	.	6	8r	.	(16bb\LL	.
.	.	.	.	.	16ff#y\)	.
8E\J	.	.	8b\	.	(16gg\	.
.	.	.	.	.	16ee\JJ)	.
=28	=28	=28	=28	=28	=28	=28
4F#y\	.	6 4	4b\	.	(16dd\LL	.
.	.	.	.	.	16cc#y\)	.
.	.	.	.	.	(16dd\	.
.	.	.	.	.	16ee\JJ)	.
4FF#y/	.	5 #	4a#X/	.	(16cc#y\LL	.
.	.	.	.	.	16b\)	.
.	.	.	.	.	(16cc#y\	.
.	.	.	.	.	16dd\JJ)	.
8BB\L	.	.	4b\	.	4b\	.
8B\J	.	.	.	.	.	.
4BB/	.	.	4r	.	8r	.
.	.	.	.	.	8ff#y\	p
!!LO:LB:g=original
=29	=29	=29	=29	=29	=29	=29
8r	.	.	4dd\	p	16ff#y\LL	.
.	.	.	.	.	16dd\	.
8B\	p	.	.	.	16b\	.
.	.	.	.	.	16ff#y\JJ	.
4BB/	.	#	8r	.	16ff#y\LL	.
.	.	.	.	.	16dd#X\	.
.	.	.	8dd#X\	.	16b\	.
.	.	.	.	.	16ff#y\JJ	.
8r	.	.	4ee\	.	16gg#X\LL	.
.	.	.	.	.	16ee\	.
8e\	.	#	.	.	16b\	.
.	.	.	.	.	16gg#X\JJ	.
4E\	.	6 5	8r	.	16gg#y\LL	.
.	.	.	.	.	16ee\	.
.	.	.	8ee\	.	16b\	.
.	.	.	.	.	16gg#X\JJ	.
=30	=30	=30	=30	=30	=30	=30
4F#y\	.	#	4cc#y\	.	16aa#X\LL	.
.	.	.	.	.	16ff#y\	.
.	.	.	.	.	16cc#y\	.
.	.	.	.	.	16aa#X\JJ	.
4E\	.	6 4#|	8r	.	16aa#y\LL	.
.	.	.	.	.	16ff#y\	.
.	.	.	8cc#y\	.	16cc#y\	.
.	.	.	.	.	16aa#X\JJ	.
8D\L	.	6	4f#y/	.	16bb\LL	.
.	.	.	.	.	16ff#y\	.
8B\J	.	.	.	.	16dd\	.
.	.	.	.	.	16ff#y\JJ	.
4BB/	.	.	8r	.	16ff#y\LL	.
.	.	.	.	.	16dd\	.
.	.	.	8dd\	.	16b\	.
.	.	.	.	.	16ff#y\JJ	.
=31	=31	=31	=31	=31	=31	=31
8r	.	.	4b\	.	(16gg\LL	.
.	.	.	.	.	16ff#y\)	.
8e\	.	.	.	.	(16ee\	.
.	.	.	.	.	16ff#y\JJ)	.
4E\	.	.	8r	.	(16gg\LL	.
.	.	.	.	.	16ff#y\)	.
.	.	.	8b\	.	(16ee\	.
.	.	.	.	.	16dd\JJ)	.
8F#y\L	.	#	4a#X/	.	8cc#y\L	.
8E\	.	.	.	.	8ff#y\J	.
8D\	.	6	8r	.	(16bb\LL	.
.	.	.	.	.	16ff#y\)	.
8E\J	.	.	8b\	.	(16gg\	.
.	.	.	.	.	16ee\JJ)	.
=32	=32	=32	=32	=32	=32	=32
4F#y\	.	6 4	4b\	.	(16dd\LL	.
.	.	.	.	.	16cc#y\)	.
.	.	.	.	.	(16dd\	.
.	.	.	.	.	16ee\JJ)	.
4FF#y/	.	5 #	4a#X/	.	(16cc#y\LL	.
.	.	.	.	.	16b\)	.
.	.	.	.	.	(16cc#y\	.
.	.	.	.	.	16dd\JJ)	.
2BB/;	.	.	2b\;	.	2b\;	.
=:|!	=:|!	=:|!	=:|!	=:|!	=:|!	=:|!
*-	*-	*-	*-	*-	*-	*-
!!!SMS: RV 79 / Estienne Roger (No. 363), Amsterdam [facs.]
!!!ENC: Fran Bennion   rev. 05/19/21 E Correia
!!!END: 2004/11/02
!!!ONB: Converted from MuseData with musedata2hum on Sat May 11 12:01:57 2024
!!!YEM: (C) 2004, 2019 Center for Computer Assisted Research in the Humanities
!!!system-decoration: [(s1,s2,s3)]
!!!URL-info: https://wiki.ccarh.org/wiki/MuseData:_Antonio_Vivaldi#Op._1:_Suonate_da_camera_a_tr.C3.A8.2C_due_violini_e_violone_o_cembalo Information about Vivaldi Op. 1 on the CCARH wiki
!!!URL-pdf: https://pdf.musedata.org/vivaldi-op01-no11.pdf#page=7 MuseData edition
!!!URL-pdf: https://s9.imslp.org/files/imglnks/usimg/1/18/IMSLP280399-PMLP10351-Vivaldi_Sonatas_Op_1_-_Violino_Primo.pdf#page=20 Violino primo part, Amsterdam: Estienne Roger, n.d.(ca.1723). Plate 363.
!!!URL-pdf: https://s9.imslp.org/files/imglnks/usimg/d/d5/IMSLP280400-PMLP10351-Vivaldi_Sonatas_Op_1_-_Violino_Secondo.pdf#page=15 Violino secondo part, Amsterdam: Estienne Roger, n.d.(ca.1723). Plate 363.
!!!URL-pdf: https://s9.imslp.org/files/imglnks/usimg/8/89/IMSLP280401-PMLP10351-Vivaldi_Sonatas_Op_1_-_Organo_e_Violoncello.pdf#page=16 Organo e Violoncello parts, Amsterdam: Estienne Roger, n.d.(ca.1723). Plate 363.
!!!URL-youtube: https://www.youtube.com/watch?v=P5HHPe_W6Uo&t=4605s L'Arte dell'Arco
!!!title: @{OTL}, mov. @{OMV}
!!!filter-vcross: vcross
!!!EEV: 2024/05/11
!!!source-file: https://bitbucket.org/musedata/vivaldi/src/master/roger/op1/no11/stage2/04/01
!!!source-file: https://bitbucket.org/musedata/vivaldi/src/master/roger/op1/no11/stage2/04/02
!!!source-file: https://bitbucket.org/musedata/vivaldi/src/master/roger/op1/no11/stage2/04/03
!!!source-file: https://bitbucket.org/musedata/vivaldi/src/master/roger/op1/no11/stage2/04/04
